X: 062
T: The Fyket
R: reel
B: Robert Bremner "A Collection of Scots Reels or Country Dances" p.6 #2
S: http://imslp.org/wiki/A_Collection_of_Scots_Reels_or_Country_Dances_(Bremner,_Robert)
Z: 2013 John Chambers <jc:trillian.mit.edu>
M: C|
L: 1/8
K: Ador
% - - - - - - - - - - - - - - - - - - - - - - - - -
V: 1
(g |\
fA)eA fAA(g | fA)eA BGG(g |\
fA)eA ^cea(g | fd)ec BGG :|
|: g |\
(f/g/a) ef T^cAAg | (f/g/a) eg BGGg |\
(f/g/a) eg fae(g | fd)ec BGG :|
% - - - - - - - - - - - - - - - - - - - - - - - - -
V: 2 clef=bass middle=d
z |\
a2a2 a2a2 | a2a2 g2g2 |\
a2a2 a2a2 | a2a2 g2g :|\
|: z | a2a2
a2a2 | a2a2 g2g2 |\
a2a2 a2a2 | a2a2 G2G :|
% - - - - - - - - - - - - - - - - - - - - - - - - -

%%sep 1 1 500
%%sep 1 1 500
